polaris-icons/icons/new-icons/TransferMajor.svg

<svg width="20" height="20" viewBox="0 0 20 20" fill="none" xmlns="http://www.w3.org/2000/svg">
<path d="M3.75 4C4.16421 4 4.5 4.33579 4.5 4.75V9.25H11.1893L9.46967 7.53033C9.17678 7.23744 9.17678 6.76256 9.46967 6.46967C9.76256 6.17678 10.2374 6.17678 10.5303 6.46967L13.5303 9.46967C13.8232 9.76256 13.8232 10.2374 13.5303 10.5303L10.5303 13.5303C10.2374 13.8232 9.76256 13.8232 9.46967 13.5303C9.17678 13.2374 9.17678 12.7626 9.46967 12.4697L11.1893 10.75L4.5 10.75V15.25C4.5 15.6642 4.16421 16 3.75 16C3.33579 16 3 15.6642 3 15.25V4.75C3 4.33579 3.33579 4 3.75 4Z" fill="#4A4A4A"/>
<path d="M16.25 4C16.6642 4 17 4.33579 17 4.75V15.25C17 15.6642 16.6642 16 16.25 16C15.8358 16 15.5 15.6642 15.5 15.25V4.75C15.5 4.33579 15.8358 4 16.25 4Z" fill="#4A4A4A"/>
</svg>

<svg viewBox="0 0 20 20" xmlns="http://www.w3.org/2000/svg"><path d="M3.75 4a.75.75 0 0 1 .75.75v4.5h6.69l-1.72-1.72a.75.75 0 0 1 1.06-1.06l3 3a.75.75 0 0 1 0 1.06l-3 3a.75.75 0 1 1-1.06-1.06l1.72-1.72h-6.69v4.5a.75.75 0 0 1-1.5 0v-10.5a.75.75 0 0 1 .75-.75Z" fill="#5C5F62"/><path d="M16.25 4a.75.75 0 0 1 .75.75v10.5a.75.75 0 0 1-1.5 0v-10.5a.75.75 0 0 1 .75-.75Z" fill="#5C5F62"/></svg>
